!!!COM: Anon.
!!!OTL: Por que esta/ triste, o/ Juliana
!!!OTL: Romanceiro Folclorico do Brasil
!!!CNT: Brasil
!!!OCY: Brasil
!!!ODT: <1971///
!!!PSR: Irmaos Vitale
!!!PSP: Sao Paulo, Brasil
!!!PDT: 1948///
!!!PPE: Rossini Tavares de Lima
!!!PPG: page 10
!! Romance: Juliana E D. Jorge
!! Place: Torrinha, Sao Paulo, Brasil
**kern
*clefG2
*k[b-e-a-]
*M6/8
*MM116
=1-
8g
8g
8g
8g
8e-
8c
=
2.g
=
8cc
8cc
8cc
8cc
8en
8e
=
2.f
=
8f
8f
8f
8dd
8cc
8bn
=
2cc
4g
=
8g
8a-
8g
8f
8d
8e-
=
2.c
==
*-
